aries-site/public/highlightImages/icons-dark.svg

<svg width="121" height="120" viewBox="0 0 121 120" fill="none" xmlns="http://www.w3.org/2000/svg">
<path fill-rule="evenodd" clip-rule="evenodd" d="M10 3C6.13401 3 3 6.13401 3 10C3 13.866 6.13401 17 10 17C11.5723 17 13.0236 16.4816 14.1922 15.6064L19.2929 20.7071L20.7071 19.2929L15.6064 14.1922C16.4816 13.0236 17 11.5723 17 10C17 6.13401 13.866 3 10 3ZM5 10C5 7.23858 7.23858 5 10 5C12.7614 5 15 7.23858 15 10C15 12.7614 12.7614 15 10 15C7.23858 15 5 12.7614 5 10Z" fill="white"/>
<g clip-path="url(#clip0)">
<path fill-rule="evenodd" clip-rule="evenodd" d="M72 5C72 2.23858 69.7614 0 67 0H53C50.2386 0 48 2.23858 48 5V13C48 15.7614 50.2386 18 53 18H64.638L72 24.135V5ZM67 2C68.6569 2 70 3.34315 70 5V19.865L65.362 16H53C51.3431 16 50 14.6569 50 13V5C50 3.34315 51.3431 2 53 2H67ZM54 8H67V6H54V8ZM58 12H67V10H58V12Z" fill="white"/>
</g>
<path fill-rule="evenodd" clip-rule="evenodd" d="M108 1C104.134 1 101 4.13401 101 8C101 10.2656 102.076 12.2799 103.746 13.5593C102.76 13.8501 101.85 14.2624 101.055 14.8147C99.1475 16.1393 98 18.2032 98 21V24H100V21C100 18.8262 100.852 17.3902 102.195 16.4574C103.591 15.4882 105.612 15 108 15C110.39 15 112.411 15.4818 113.806 16.4472C115.146 17.3753 116 18.8099 116 21V24H118V21C118 18.1901 116.854 16.1247 114.944 14.8028C114.15 14.2533 113.243 13.844 112.259 13.5555C113.926 12.276 115 10.2634 115 8C115 4.13401 111.866 1 108 1ZM108 13C110.761 13 113 10.7614 113 8C113 5.23858 110.761 3 108 3C105.239 3 103 5.23858 103 8C103 10.7614 105.239 13 108 13Z" fill="white"/>
<path d="M12 50C6.47715 50 2 54.4772 2 60C2 65.5228 6.47715 70 12 70C17.5228 70 22 65.5228 22 60H20C20 64.4183 16.4183 68 12 68C7.58172 68 4 64.4183 4 60C4 55.5817 7.58172 52 12 52C14.9715 52 17.5547 53.6178 18.8763 56H15V58H22V51H20V54.0484C18.2158 51.5901 15.2895 50 12 50Z" fill="white"/>
<path fill-rule="evenodd" clip-rule="evenodd" d="M99 96V120H119V102.586L112.414 96H99ZM101 118V98H110V105H117V118H101ZM116.586 103L112 98.4142V103H116.586Z" fill="white"/>
<path fill-rule="evenodd" clip-rule="evenodd" d="M52 49H48V51H51.2192L54.0299 62.2425L54.2192 63L55.0299 66.2425L55.2192 67H56H69V65H56.7808L56.2808 63H68H68.8022L68.9762 62.2169L70.9762 53.2169L71.2466 52H70H53.5308L52.9701 49.7575L52.7808 49H52ZM55.7808 61L54.0308 54H68.7534L67.1978 61H55.7808ZM65 70C65 68.8952 65.8952 68 67 68C68.1048 68 69 68.8952 69 70C69 71.1048 68.1048 72 67 72C65.8952 72 65 71.1048 65 70ZM57 68C55.8952 68 55 68.8952 55 70C55 71.1048 55.8952 72 57 72C58.1048 72 59 71.1048 59 70C59 68.8952 58.1048 68 57 68Z" fill="white"/>
<path fill-rule="evenodd" clip-rule="evenodd" d="M13 101.014V98H11V101.014C9.72221 101.027 8.75823 101.016 7.99506 101.008H7.99505H7.99504C7.61915 101.004 7.29197 101 7 101C5.93265 101 4.70037 101.129 3.58424 101.846C2.44797 102.577 1.58399 103.816 1.03848 105.725C0.000408769 109.359 0 111.468 0 114C0 115.576 0.663748 116.67 1.74613 117.301C2.73255 117.877 3.95453 118 5 118C5.85484 118 6.52396 117.567 7.02981 117.137C7.36032 116.857 7.7167 116.488 8.04867 116.145L8.04871 116.145L8.04905 116.145L8.04908 116.145L8.04918 116.144L8.04935 116.144C8.19763 115.991 8.34104 115.843 8.47509 115.709C9.42175 114.769 10.4283 114 12 114C13.5717 114 14.5783 114.769 15.5249 115.709C15.659 115.843 15.8025 115.991 15.9509 116.145L15.9512 116.145L15.9513 116.145L15.9514 116.145C16.2834 116.488 16.6397 116.857 16.9702 117.137C17.476 117.567 18.1452 118 19 118C20.0455 118 21.2675 117.877 22.2539 117.301C23.3363 116.67 24 115.576 24 114C24 111.468 23.9996 109.359 22.9615 105.725C22.416 103.816 21.552 102.577 20.4158 101.846C19.2996 101.129 18.0674 101 17 101C16.708 101 16.3809 101.004 16.005 101.008H16.005H16.0049C15.2418 101.016 14.2778 101.027 13 101.014ZM2.96152 106.275C3.41601 104.684 4.05203 103.923 4.66576 103.529C5.29964 103.121 6.06735 103 7 103C7.26553 103 7.57607 103.003 7.93937 103.007L7.93945 103.007C8.88767 103.018 10.1953 103.032 12 103C13.8047 103.032 15.1123 103.018 16.0606 103.007L16.0606 103.007C16.4239 103.003 16.7345 103 17 103C17.9326 103 18.7004 103.121 19.3342 103.529C19.948 103.923 20.584 104.684 21.0385 106.275C22 109.64 22 111.531 22 113.997V114C22 114.924 21.6637 115.33 21.2461 115.574C20.7325 115.873 19.9545 116 19 116C18.8548 116 18.6422 115.933 18.2645 115.613C18.0073 115.394 17.7713 115.149 17.4867 114.854L17.4866 114.854C17.323 114.684 17.1433 114.498 16.9343 114.291C15.8674 113.231 14.3739 112 12 112C9.62606 112 8.1326 113.231 7.06567 114.291C6.85674 114.498 6.6771 114.684 6.5135 114.854L6.51343 114.854L6.51341 114.854L6.51338 114.854L6.51337 114.854L6.5133 114.854C6.22872 115.149 5.99268 115.394 5.73548 115.613C5.35783 115.933 5.14516 116 5 116C4.04547 116 3.26745 115.873 2.75387 115.574C2.33625 115.33 2 114.924 2 114V113.997C2 111.531 2 109.64 2.96152 106.275ZM16 110C16 108.895 16.8954 108 18 108C19.1046 108 20 108.895 20 110C20 111.105 19.1046 112 18 112C16.8954 112 16 111.105 16 110ZM14 105C12.8954 105 12 105.895 12 107C12 108.105 12.8954 109 14 109C15.1046 109 16 108.105 16 107C16 105.895 15.1046 105 14 105ZM6 109H4V107H6V105H8V107H10V109H8V111H6V109Z" fill="white"/>
<path fill-rule="evenodd" clip-rule="evenodd" d="M114.336 52.5111C113.816 53.1794 112.689 53.8435 110.013 53.9761C110.049 52.9136 110.183 52.1084 110.665 51.4889C111.184 50.8206 112.311 50.1565 114.987 50.0239C114.951 51.0864 114.818 51.8916 114.336 52.5111ZM116 48C112.415 48 110.255 48.7582 109.086 50.2611C108.35 51.2076 108.112 52.3413 108.036 53.4076C106.768 52.4714 104.827 52 102 52H101V53L101 53.1359C100.999 54.5308 100.997 56.3395 102.086 57.7389C103.142 59.0966 105.007 59.8465 108 59.9788V63H101V65H102.246L104.039 71.2747L104.246 72H105H113H113.754L113.962 71.2747L115.754 65H117V63H110V60V59L110 58.8641V58.863V58.8627V58.8624C110 58.7701 110 58.6759 110 58.5802V55.9788C112.993 55.8465 114.859 55.0966 115.915 53.7389C117.003 52.3395 117.001 50.5308 117 49.1359L117 49V48H116ZM105.754 70L104.326 65H113.674L112.246 70H105.754ZM103.013 54.0239C103.049 55.0864 103.183 55.8916 103.665 56.5111C104.184 57.1794 105.311 57.8435 107.987 57.9761C107.951 56.9136 107.818 56.1084 107.336 55.4889C106.816 54.8206 105.689 54.1565 103.013 54.0239Z" fill="white"/>
<path fill-rule="evenodd" clip-rule="evenodd" d="M48 108C48 114.627 53.3726 120 60 120C66.6274 120 72 114.627 72 108C72 101.373 66.6274 96 60 96C53.3726 96 48 101.373 48 108ZM60 118C54.4772 118 50 113.523 50 108C50 102.477 54.4772 98 60 98C65.5228 98 70 102.477 70 108C70 113.523 65.5228 118 60 118ZM61 110.586L64.2929 107.293L65.7071 108.707L60.7071 113.707L60 114.414L59.2929 113.707L54.2929 108.707L55.7071 107.293L59 110.586V102H61V110.586Z" fill="white"/>
<defs>
<clipPath id="clip0">
<rect width="24" height="24" fill="white" transform="translate(48)"/>
</clipPath>
</defs>
</svg>

<?xml version="1.0" encoding="utf-8"?>
<!-- Generator: Adobe Illustrator 23.1.0, SVG Export Plug-In . SVG Version: 6.00 Build 0)  -->
<svg version="1.1" id="Layer_1" xmlns="http://www.w3.org/2000/svg" xmlns:xlink="http://www.w3.org/1999/xlink" x="0px" y="0px"
	 viewBox="0 0 121 120" style="enable-background:new 0 0 121 120;" xml:space="preserve">
<style type="text/css">
	.st0{fill-rule:evenodd;clip-rule:evenodd;fill:#C0CADC;}
	.st1{clip-path:url(#SVGID_2_);}
	.st2{fill:#C0CADC;}
</style>
<path class="st0" d="M10,3c-3.9,0-7,3.1-7,7c0,3.9,3.1,7,7,7c1.6,0,3-0.5,4.2-1.4l5.1,5.1l1.4-1.4l-5.1-5.1C16.5,13,17,11.6,17,10
	C17,6.1,13.9,3,10,3z M5,10c0-2.8,2.2-5,5-5c2.8,0,5,2.2,5,5c0,2.8-2.2,5-5,5C7.2,15,5,12.8,5,10z"/>
<g>
	<defs>
		<rect id="SVGID_1_" x="48" width="24" height="24"/>
	</defs>
	<clipPath id="SVGID_2_">
		<use xlink:href="#SVGID_1_"  style="overflow:visible;"/>
	</clipPath>
	<g class="st1">
		<path class="st0" d="M72,5c0-2.8-2.2-5-5-5H53c-2.8,0-5,2.2-5,5v8c0,2.8,2.2,5,5,5h11.6l7.4,6.1V5z M67,2c1.7,0,3,1.3,3,3v14.9
			L65.4,16H53c-1.7,0-3-1.3-3-3V5c0-1.7,1.3-3,3-3H67z M54,8h13V6H54V8z M58,12h9v-2h-9V12z"/>
	</g>
</g>
<path class="st0" d="M108,1c-3.9,0-7,3.1-7,7c0,2.3,1.1,4.3,2.7,5.6c-1,0.3-1.9,0.7-2.7,1.3C99.1,16.1,98,18.2,98,21v3h2v-3
	c0-2.2,0.9-3.6,2.2-4.5c1.4-1,3.4-1.5,5.8-1.5c2.4,0,4.4,0.5,5.8,1.4c1.3,0.9,2.2,2.4,2.2,4.6v3h2v-3c0-2.8-1.1-4.9-3.1-6.2
	c-0.8-0.5-1.7-1-2.7-1.2c1.7-1.3,2.7-3.3,2.7-5.6C115,4.1,111.9,1,108,1z M108,13c2.8,0,5-2.2,5-5c0-2.8-2.2-5-5-5s-5,2.2-5,5
	C103,10.8,105.2,13,108,13z"/>
<path class="st2" d="M12,50C6.5,50,2,54.5,2,60s4.5,10,10,10c5.5,0,10-4.5,10-10h-2c0,4.4-3.6,8-8,8c-4.4,0-8-3.6-8-8s3.6-8,8-8
	c3,0,5.6,1.6,6.9,4H15v2h7v-7h-2v3C18.2,51.6,15.3,50,12,50z"/>
<path class="st0" d="M99,96v24h20v-17.4l-6.6-6.6H99z M101,118V98h9v7h7v13H101z M116.6,103l-4.6-4.6v4.6H116.6z"/>
<path class="st0" d="M52,49h-4v2h3.2L54,62.2l0.2,0.8l0.8,3.2l0.2,0.8H56h13v-2H56.8l-0.5-2H68h0.8l0.2-0.8l2-9l0.3-1.2H70H53.5
	L53,49.8L52.8,49H52z M55.8,61L54,54h14.7l-1.6,7H55.8z M65,70c0-1.1,0.9-2,2-2s2,0.9,2,2s-0.9,2-2,2S65,71.1,65,70z M57,68
	c-1.1,0-2,0.9-2,2s0.9,2,2,2s2-0.9,2-2S58.1,68,57,68z"/>
<path class="st0" d="M13,101v-3h-2v3c-1.3,0-2.2,0-3,0h0h0c-0.4,0-0.7,0-1,0c-1.1,0-2.3,0.1-3.4,0.8c-1.1,0.7-2,2-2.5,3.9
	c-1,3.6-1,5.7-1,8.3c0,1.6,0.7,2.7,1.7,3.3c1,0.6,2.2,0.7,3.3,0.7c0.9,0,1.5-0.4,2-0.9c0.3-0.3,0.7-0.6,1-1h0h0h0l0,0h0
	c0.1-0.2,0.3-0.3,0.4-0.4c0.9-0.9,2-1.7,3.5-1.7s2.6,0.8,3.5,1.7c0.1,0.1,0.3,0.3,0.4,0.4h0h0h0c0.3,0.3,0.7,0.7,1,1
	c0.5,0.4,1.2,0.9,2,0.9c1,0,2.3-0.1,3.3-0.7c1.1-0.6,1.7-1.7,1.7-3.3c0-2.5,0-4.6-1-8.3c-0.5-1.9-1.4-3.1-2.5-3.9
	c-1.1-0.7-2.3-0.8-3.4-0.8c-0.3,0-0.6,0-1,0l0,0h0C15.2,101,14.3,101,13,101z M3,106.3c0.5-1.6,1.1-2.4,1.7-2.7
	c0.6-0.4,1.4-0.5,2.3-0.5c0.3,0,0.6,0,0.9,0h0c0.9,0,2.3,0,4.1,0c1.8,0,3.1,0,4.1,0l0,0c0.4,0,0.7,0,0.9,0c0.9,0,1.7,0.1,2.3,0.5
	c0.6,0.4,1.2,1.2,1.7,2.7c1,3.4,1,5.3,1,7.7v0c0,0.9-0.3,1.3-0.8,1.6c-0.5,0.3-1.3,0.4-2.2,0.4c-0.1,0-0.4-0.1-0.7-0.4
	c-0.3-0.2-0.5-0.5-0.8-0.8h0c-0.2-0.2-0.3-0.4-0.6-0.6c-1.1-1.1-2.6-2.3-4.9-2.3c-2.4,0-3.9,1.2-4.9,2.3c-0.2,0.2-0.4,0.4-0.6,0.6h0
	h0h0h0h0c-0.3,0.3-0.5,0.5-0.8,0.8C5.4,115.9,5.1,116,5,116c-1,0-1.7-0.1-2.2-0.4C2.3,115.3,2,114.9,2,114v0
	C2,111.5,2,109.6,3,106.3z M16,110c0-1.1,0.9-2,2-2s2,0.9,2,2s-0.9,2-2,2S16,111.1,16,110z M14,105c-1.1,0-2,0.9-2,2s0.9,2,2,2
	s2-0.9,2-2S15.1,105,14,105z M6,109H4v-2h2v-2h2v2h2v2H8v2H6V109z"/>
<path class="st0" d="M114.3,52.5c-0.5,0.7-1.6,1.3-4.3,1.5c0-1.1,0.2-1.9,0.7-2.5c0.5-0.7,1.6-1.3,4.3-1.5
	C115,51.1,114.8,51.9,114.3,52.5z M116,48c-3.6,0-5.7,0.8-6.9,2.3c-0.7,0.9-1,2.1-1,3.1c-1.3-0.9-3.2-1.4-6-1.4h-1v1v0.1
	c0,1.4,0,3.2,1.1,4.6c1.1,1.4,2.9,2.1,5.9,2.2v3h-7v2h1.2l1.8,6.3l0.2,0.7h0.8h8h0.8l0.2-0.7l1.8-6.3h1.2v-2h-7v-3v-1v-0.1v0v0v0
	c0-0.1,0-0.2,0-0.3V56c3-0.1,4.9-0.9,5.9-2.2c1.1-1.4,1.1-3.2,1.1-4.6V49v-1H116z M105.8,70l-1.4-5h9.3l-1.4,5H105.8z M103,54
	c0,1.1,0.2,1.9,0.7,2.5c0.5,0.7,1.6,1.3,4.3,1.5c0-1.1-0.2-1.9-0.7-2.5C106.8,54.8,105.7,54.2,103,54z"/>
<path class="st0" d="M48,108c0,6.6,5.4,12,12,12s12-5.4,12-12s-5.4-12-12-12S48,101.4,48,108z M60,118c-5.5,0-10-4.5-10-10
	s4.5-10,10-10s10,4.5,10,10S65.5,118,60,118z M61,110.6l3.3-3.3l1.4,1.4l-5,5l-0.7,0.7l-0.7-0.7l-5-5l1.4-1.4l3.3,3.3V102h2V110.6z"
	/>
</svg>
